X:1
T:500 Miles
Q:1/4=108
M:4/4
L:1/8
K:E
G/2A3/2|Bc/2z4z/2 G/2A3/2|BB B/2c/2B2G G/2A/2B-|BB/2B3/2c BF/2F3/2E|
Gz4z G/2A3/2|Bc/2z4z/2 G/2A3/2|BB B/2c/2B2G G/2A/2B-|BB/2B3/2c BF/2F3/2E|
Ez4z G/2A3/2|Bc/2z4z/2 G/2A3/2|BB B/2c/2B2G G/2A/2B-|BB/2B3/2c BF/2F3/2E|
Gz4G G/2A3/2|Bc/2z4z/2 G/2A3/2|BB B/2c/2B2G G/2A/2B-|BB/2B3/2c BF/2F3/2E|
Ez6B|e2 B2 B2 B2|B2 B2 B2 Be-|e2 B2 B2 A2|
G2 F2 F2 BB|e2 B2 B2 GA|B2 B2 B2 B2|e2 B2 B2 A2|
G2 F2 F2 GA|Bc/2z4z/2 G/2A3/2|BB B/2c/2B2G G/2A/2B-|BB/2B3/2c BF/2F3/2E|
Gz4G G/2A3/2|Bc/2z4z/2 G/2A3/2|BB B/2c/2B2G G/2A/2B-|BB/2B3/2c BF/2F3/2E|
Ez6B|e2 B2 B2 B2|B2 B2 B2 Be-|e2 B2 B2 A2|
G2 F2 F2 BB|e2 B2 B2 GA|B2 B2 B2 B2|e2 B2 B2 A2|
G2 F2 F2 gg/2g/2-|ge/2z4z/2 gg/2g/2-|ge/2z3z/2G GG|AA/2A/2 AA/2A/2 BB/2B/2 BA|
G2 z4 gg/2g/2-|ge/2z4z/2 gg/2g/2-|ge/2z3z/2G GG|AA/2A/2 AA/2G/2 FF/2F/2 FE|
E2 z6|z8|z6 G/2A3/2|Bc/2z4z/2 G/2A3/2|
BB B/2c/2B2G G/2A/2B-|BB/2B3/2c BF/2F3/2E|Gz4G G/2A3/2|Bc/2z4z/2 G/2A3/2|
BB B/2c/2B2G G/2A/2B-|BB/2B3/2c BF/2F3/2E|Ez6B|e2 B2 B2 B2|
B2 B2 B2 Be-|e2 B2 B2 A2|G2 F2 F2 BB|e2 B2 B2 GA|
B2 B2 B2 B2|e2 B2 B2 A2|G2 F2 F2 gg/2g/2-|ge/2z4z/2 gg/2g/2-|
ge/2z3z/2G GG|AA/2A/2 AA/2A/2 BB/2B/2 BA|G2 z4 gg/2g/2-|ge/2z4z/2 gg/2g/2-|
ge/2z3z/2G GG|AA/2A/2 AA/2G/2 FF/2F/2 FE|E2 z4 zB|e2 B2 B2 B2|
B2 B2 B2 Be-|e2 B2 B2 A2|G2 F2 F2 BB|e2 B2 B2 GA|
B2 B2 B2 B2|e2 B2 B2 A2|G2 F2 A2 G2|E8-|
E8|
